src/img/HomePage/ChefTakeshi/desktopOnionAsterisque.svg

<?xml version="1.0" encoding="UTF-8"?> <svg xmlns="http://www.w3.org/2000/svg" width="169" height="65" viewBox="0 0 169 65" fill="none"> <path fill-rule="evenodd" clip-rule="evenodd" d="M153.354 9.34228C152.632 9.77027 151.51 12.4208 150.679 15.6632C149.479 20.3392 149.471 21.4525 150.622 22.5104C152.4 24.1446 152.513 24.1595 154.44 23.0182C155.549 22.3603 156.463 20.5124 157.308 17.2181C158.905 10.9902 156.994 7.18454 153.354 9.34228ZM136.106 19.925C134.979 20.3786 134.211 21.4396 134.065 22.743C133.844 24.7263 134.151 24.9283 140.093 26.6949C145.642 28.3443 146.455 28.3925 147.252 27.1146C148.938 24.4143 148.047 22.7617 144.396 21.812C142.519 21.3244 140.293 20.5362 139.448 20.061C138.604 19.5866 137.1 19.5247 136.106 19.925ZM156.433 25.3257C155.558 25.6757 154.805 26.8303 154.671 28.0278C154.45 30.0111 154.758 30.2131 160.699 31.9797C166.249 33.6291 167.061 33.6773 167.858 32.3993C169.531 29.7186 168.646 28.0488 165.017 27.0397C163.148 26.52 160.796 25.784 159.79 25.4038C158.784 25.0244 157.274 24.9889 156.433 25.3257ZM31.3927 0.220354C26.5406 0.731904 21.723 2.58512 14.8676 6.57508C4.22932 12.7681 0.131107 19.8008 1.1281 30.1557C2.01512 39.3776 3.82578 46.2208 6.1425 49.1076C7.9252 51.3295 16.2006 57.7784 23.1084 62.3291C24.5332 63.2681 35.0515 64.7498 42.01 64.9923C44.172 65.0673 48.4024 63.9722 52.3605 62.3121C58.4683 59.7508 59.639 58.8406 65.7144 51.9322C71.8927 44.9069 72.4217 44.0397 73.0382 39.9126C74.5394 29.8667 69.0429 15.9358 60.9807 9.35078C57.3903 6.41893 55.7391 5.7192 45.8852 2.9589C37.8625 0.710467 33.8784 -0.0421044 31.3927 0.220354ZM148.062 29.9781C147.339 30.4061 146.218 33.0567 145.386 36.2991C144.187 40.9751 144.178 42.0884 145.329 43.1463C147.108 44.7805 147.221 44.7954 149.148 43.6541C150.287 42.9778 151.181 41.1087 152.129 37.4116C153.25 33.0384 153.246 31.9174 152.107 30.8706C150.333 29.2412 149.583 29.0761 148.062 29.9781ZM31.6998 2.89694C24.8921 3.6248 12.7618 9.86006 7.956 15.1032C6.48771 16.7043 5.30237 19.2779 4.38091 22.864C3.17324 27.566 3.22556 29.3178 4.80513 37.0484C6.8486 47.0463 7.29253 47.6651 18.1157 55.6031C24.9566 60.6204 24.9644 60.6241 31.9756 61.5038C35.8337 61.9874 40.3738 62.3839 42.0649 62.3838C46.471 62.3852 57.1272 57.7698 59.7552 54.7225C60.9755 53.3077 63.7978 50.0991 66.026 47.5932C69.4491 43.7444 70.1466 42.4497 70.5154 39.2612C71.5725 30.1077 66.7193 17.8577 59.6398 11.815C55.9493 8.66394 54.5796 8.05485 45.2856 5.43726C38.0776 3.40657 34.0227 2.64905 31.6998 2.89694ZM35.5021 10.493C31.5221 10.1971 28.6032 11.0285 22.6747 14.1477C13.8031 18.8162 10.9627 25.3939 13.1167 36.2831C14.5591 43.5756 15.3009 44.6394 22.6726 49.9846C27.5035 53.488 28.0038 53.6744 34.7009 54.4638C44.4163 55.6095 50.2944 53.4679 56.2809 46.601C58.905 43.5897 60.8478 40.5119 61.3348 38.5923C63.0263 31.925 58.8043 20.9469 52.8091 16.4245C49.5749 13.9842 40.4656 10.8624 35.5021 10.493ZM31.1454 13.6731C23.1828 15.7973 16.6915 20.8819 15.373 26.0262C14.4157 29.7623 15.9084 39.421 17.8859 42.2876C18.552 43.2528 21.3505 45.6824 24.1053 47.6865C28.8424 51.1341 29.4451 51.3636 35.2261 51.926C41.9818 52.5827 41.9246 52.5899 47.0376 50.3656C51.164 48.57 57.9985 41.3972 58.8488 37.9688C60.1667 32.6554 56.8624 23.3881 52.1738 19.2474C48.4186 15.931 35.5086 12.5092 31.1454 13.6731Z" fill="#201B19"></path> <path fill-rule="evenodd" clip-rule="evenodd" d="M31.6998 2.89694C24.8921 3.6248 12.7618 9.86006 7.956 15.1032C6.48771 16.7043 5.30237 19.2779 4.38091 22.864C3.17324 27.566 3.22556 29.3178 4.80513 37.0484C6.8486 47.0463 7.29253 47.6651 18.1157 55.6031C24.9566 60.6204 24.9644 60.6241 31.9756 61.5038C35.8337 61.9874 40.3738 62.3839 42.0649 62.3838C46.471 62.3852 57.1272 57.7698 59.7552 54.7225C60.9755 53.3077 63.7978 50.0991 66.026 47.5932C69.4491 43.7444 70.1466 42.4497 70.5154 39.2612C71.5725 30.1077 66.7193 17.8577 59.6398 11.815C55.9493 8.66394 54.5796 8.05485 45.2856 5.43726C38.0776 3.40657 34.0227 2.64905 31.6998 2.89694ZM22.6747 14.1477C28.6032 11.0285 31.5221 10.1971 35.5021 10.493C40.4656 10.8624 49.5749 13.9842 52.8091 16.4245C58.8043 20.9469 63.0263 31.925 61.3348 38.5923C60.8478 40.5119 58.905 43.5897 56.2809 46.601C50.2944 53.4679 44.4163 55.6095 34.7009 54.4638C28.0038 53.6744 27.5035 53.488 22.6726 49.9846C15.3009 44.6394 14.5591 43.5756 13.1167 36.2831C10.9627 25.3939 13.8031 18.8162 22.6747 14.1477Z" fill="#FAF5E5"></path> </svg>

<svg xmlns="http://www.w3.org/2000/svg" width="169" height="65" fill="none"><path fill-rule="evenodd" clip-rule="evenodd" d="M153.354 9.342c-.722.428-1.844 3.079-2.675 6.321-1.2 4.676-1.208 5.79-.057 6.847 1.778 1.635 1.891 1.65 3.818.508 1.109-.658 2.023-2.506 2.868-5.8 1.597-6.228-.314-10.033-3.954-7.876Zm-17.248 10.583c-1.127.454-1.895 1.515-2.041 2.818-.221 1.983.086 2.185 6.028 3.952 5.549 1.65 6.362 1.697 7.159.42 1.686-2.7.795-4.353-2.856-5.303-1.877-.488-4.103-1.276-4.948-1.751-.844-.474-2.348-.536-3.342-.136Zm20.327 5.4c-.875.35-1.628 1.505-1.762 2.703-.221 1.983.087 2.185 6.028 3.952 5.55 1.65 6.362 1.697 7.159.42 1.673-2.681.788-4.351-2.841-5.36-1.869-.52-4.221-1.256-5.227-1.636-1.006-.38-2.516-.415-3.357-.078ZM31.393.22c-4.852.512-9.67 2.365-16.525 6.355C4.229 12.768.13 19.801 1.128 30.155c.887 9.223 2.698 16.066 5.014 18.953 1.783 2.222 10.059 8.67 16.966 13.221 1.425.94 11.943 2.42 18.902 2.663 2.162.075 6.392-1.02 10.35-2.68 6.108-2.561 7.279-3.471 13.354-10.38 6.179-7.025 6.708-7.892 7.324-12.02 1.501-10.045-3.995-23.976-12.057-30.561-3.59-2.932-5.242-3.632-15.096-6.392C37.862.71 33.878-.042 31.393.22Zm116.669 29.758c-.723.428-1.844 3.079-2.676 6.321-1.199 4.676-1.208 5.79-.057 6.847 1.779 1.635 1.892 1.65 3.819.508 1.139-.676 2.033-2.545 2.981-6.242 1.121-4.374 1.117-5.495-.022-6.541-1.774-1.63-2.524-1.795-4.045-.893ZM31.7 2.897c-6.808.728-18.938 6.963-23.744 12.206-1.468 1.601-2.654 4.175-3.575 7.761-1.208 4.702-1.155 6.454.424 14.184 2.044 9.998 2.488 10.617 13.31 18.555 6.842 5.017 6.85 5.021 13.86 5.9 3.859.484 8.399.88 10.09.88 4.406.002 15.062-4.613 17.69-7.66a819.07 819.07 0 0 1 6.271-7.13c3.423-3.849 4.12-5.143 4.49-8.332 1.056-9.153-3.797-21.403-10.876-27.446-3.69-3.151-5.06-3.76-14.354-6.378-7.208-2.03-11.263-2.788-13.586-2.54Zm3.802 7.596c-3.98-.296-6.899.535-12.827 3.655-8.872 4.668-11.712 11.246-9.558 22.135 1.442 7.293 2.184 8.356 9.556 13.702 4.83 3.503 5.33 3.69 12.028 4.479 9.715 1.145 15.593-.996 21.58-7.863 2.624-3.011 4.567-6.09 5.054-8.009 1.691-6.667-2.53-17.645-8.526-22.168-3.234-2.44-12.343-5.562-17.307-5.931Zm-4.357 3.18c-7.962 2.124-14.453 7.209-15.772 12.353-.957 3.736.535 13.395 2.513 16.262.666.965 3.465 3.394 6.22 5.399 4.736 3.447 5.34 3.677 11.12 4.239 6.756.657 6.699.664 11.812-1.56 4.126-1.796 10.96-8.969 11.81-12.397 1.319-5.314-1.986-14.58-6.674-18.722-3.755-3.316-16.665-6.738-21.029-5.574Z" fill="#201B19"/><path fill-rule="evenodd" clip-rule="evenodd" d="M31.7 2.897c-6.808.728-18.938 6.963-23.744 12.206-1.468 1.601-2.654 4.175-3.575 7.761-1.208 4.702-1.155 6.454.424 14.184 2.044 9.998 2.488 10.617 13.31 18.555 6.842 5.017 6.85 5.021 13.86 5.9 3.859.484 8.399.88 10.09.88 4.406.002 15.062-4.613 17.69-7.66a819.07 819.07 0 0 1 6.271-7.13c3.423-3.849 4.12-5.143 4.49-8.332 1.056-9.153-3.797-21.403-10.876-27.446-3.69-3.151-5.06-3.76-14.354-6.378-7.208-2.03-11.263-2.788-13.586-2.54Zm-9.025 11.25c5.928-3.119 8.847-3.95 12.827-3.654 4.964.37 14.073 3.491 17.307 5.931 5.995 4.523 10.217 15.501 8.526 22.168-.487 1.92-2.43 4.998-5.054 8.009-5.987 6.867-11.865 9.008-21.58 7.863-6.697-.79-7.198-.976-12.028-4.48-7.372-5.345-8.114-6.408-9.556-13.7-2.154-10.89.686-17.468 9.558-22.136Z" fill="#FAF5E5"/></svg>
